X:115
T:Many's a Wild Night
M:2/4
L:1/8
Q:240
S:David Kidd
R:Polka
D:Jackie Daly, Many's a Wild Night
Z:Lorna LaVerne
K:D
d/B/ |: Ad dc/B/ | AF FE/F/ | GB BA/G/ | FD D2 |\
Ad dc/B/ | AF FE/F/ | GB BA | D2 D2 :|
dA/d/ fa | ge e/f/e/d/ | cA/c/ eg | fd f/g/f/e/ |\
dA/d/ fa | ge ed | cb ba | d2 d2 :|
